X: 1
T: The Song of the Tea
M: 6/8
L: 1/8
R: jig
K: Gmaj
|: gfd cAd | GAG B2c | d2B cAG | FDF cBA |
G3 GFG | A3 dfa | g/f/ed cAF | AGF GBd  :|
|: g3 gfg | aad fga | afd c2d | cAG FGA |
dgg gfg | afd f3 | fed cAF | AGF G3  :|
